www/assets/icons/download_for_offline.svg

<svg xmlns="http://www.w3.org/2000/svg" width="24" height="24" viewBox="0 0 24 24" fill='currentColor'><path d="M12 2C6.49 2 2 6.49 2 12s4.49 10 10 10 10-4.49 10-10S17.51 2 12 2m-1 8V6h2v4h3l-4 4-4-4zm6 7H7v-2h10z"/></svg>

<svg width="24" height="24" viewBox="0 0 24 24" xmlns="http://www.w3.org/2000/svg" fill='currentColor'><path d="M12 2C6.49 2 2 6.49 2 12C2 17.51 6.49 22 12 22C17.51 22 22 17.51 22 12C22 6.49 17.51 2 12 2ZM11 10V6H13V10H16L12 14L8 10H11ZM17 17H7V15H17V17Z"/></svg>
